packages/foundations/assets/icons/functional/images/accessibility/support_dog_14.svg

<svg width="14" height="14" viewBox="0 0 14 14" fill="none" xmlns="http://www.w3.org/2000/svg">
<g clip-path="url(#clip0_183_3626)">
<path fill-rule="evenodd" clip-rule="evenodd" d="M12.121 3.54448L10.178 2.89548L8.89499 1.61248C8.80433 1.52095 8.6901 1.45629 8.56495 1.42567C8.4398 1.39506 8.30862 1.39968 8.18594 1.43902C8.06326 1.47836 7.95385 1.55089 7.86985 1.64857C7.78585 1.74626 7.73052 1.86529 7.70999 1.99248L7.13399 5.45048L3.29399 1.61248C3.22973 1.54429 3.15243 1.4897 3.06667 1.45194C2.98092 1.41418 2.88846 1.39402 2.79477 1.39265C2.70108 1.39129 2.60807 1.40875 2.52125 1.444C2.43443 1.47924 2.35557 1.53156 2.28935 1.59785C2.22313 1.66414 2.17089 1.74305 2.13573 1.82991C2.10057 1.91676 2.0832 2.00979 2.08466 2.10348C2.08612 2.19717 2.10637 2.28961 2.14422 2.37533C2.18207 2.46104 2.23674 2.53829 2.30499 2.60248L5.30999 5.60748H2.92499C2.88499 5.54448 2.79999 5.35948 2.79999 4.90748C2.79999 4.72183 2.72624 4.54378 2.59497 4.41251C2.46369 4.28123 2.28565 4.20748 2.09999 4.20748C1.91434 4.20748 1.73629 4.28123 1.60502 4.41251C1.47374 4.54378 1.39999 4.72183 1.39999 4.90748C1.39999 5.96748 1.74999 6.49148 2.09999 6.75048V10.8575C2.09999 11.8225 2.88499 12.6075 3.84999 12.6075C4.81499 12.6075 5.59999 11.8225 5.59999 10.8575V10.0795C6.03699 10.1715 6.56299 10.1715 6.99999 10.0795V10.8575C6.99999 11.8225 7.78499 12.6075 8.74999 12.6075C9.71499 12.6075 10.5 11.8225 10.5 10.8575V6.91948C11.511 6.66948 12.6 5.86348 12.6 4.20748C12.6 4.06063 12.5538 3.91751 12.4678 3.79847C12.3818 3.67944 12.2604 3.59056 12.121 3.54448ZM5.21299 8.48148C5.1062 8.4281 4.98754 8.40292 4.86827 8.40833C4.749 8.41374 4.6331 8.44956 4.53159 8.5124C4.43007 8.57523 4.34631 8.66298 4.28827 8.76732C4.23023 8.87165 4.19984 8.98909 4.19999 9.10848V10.8585C4.19999 10.9513 4.16312 11.0403 4.09748 11.106C4.03184 11.1716 3.94282 11.2085 3.84999 11.2085C3.75717 11.2085 3.66814 11.1716 3.60251 11.106C3.53687 11.0403 3.49999 10.9513 3.49999 10.8585V7.00748H6.29999V8.75748C5.86899 8.75748 5.36799 8.55748 5.21299 8.48048V8.48148ZM8.74999 11.2085C8.65717 11.2085 8.56814 11.1716 8.50251 11.106C8.43687 11.0403 8.39999 10.9513 8.39999 10.8585V9.10748C8.39973 8.92191 8.32589 8.74402 8.19468 8.6128C8.06346 8.48158 7.88556 8.40775 7.69999 8.40748V7.43948L9.09999 8.13948V10.8575C9.09999 10.9503 9.06312 11.0393 8.99748 11.105C8.93184 11.1706 8.84282 11.2075 8.74999 11.2075V11.2085ZM9.79999 5.60748C9.61434 5.60748 9.43629 5.68123 9.30502 5.81251C9.17374 5.94378 9.09999 6.12183 9.09999 6.30748V6.57448L8.42199 6.23448L8.86699 3.56448L9.30499 4.00248C9.38206 4.07898 9.47587 4.13649 9.57899 4.17048L11.139 4.69048C10.906 5.51748 10.077 5.60348 9.79999 5.60748Z" fill="#1A1C1F"/>
</g>
<defs>
<clipPath id="clip0_183_3626">
<rect width="14" height="14" fill="white"/>
</clipPath>
</defs>
</svg>

<svg xmlns="http://www.w3.org/2000/svg" width="14" height="14" fill="none"><g clip-path="url(#a)"><path fill="#1A1C1F" fill-rule="evenodd" d="m12.121 3.544-1.943-.649-1.283-1.283a.698.698 0 0 0-1.185.38L7.134 5.45l-3.84-3.838a.7.7 0 1 0-.989.99L5.31 5.607H2.925c-.04-.063-.125-.248-.125-.7a.7.7 0 1 0-1.4 0c0 1.06.35 1.584.7 1.843v4.108c0 .964.785 1.75 1.75 1.75s1.75-.786 1.75-1.75v-.779c.437.092.963.092 1.4 0v.778c0 .966.785 1.75 1.75 1.75s1.75-.784 1.75-1.75V6.92c1.011-.25 2.1-1.056 2.1-2.712a.7.7 0 0 0-.479-.663M5.213 8.481a.7.7 0 0 0-1.013.627v1.75a.35.35 0 0 1-.7 0v-3.85h2.8v1.75c-.431 0-.932-.2-1.087-.278zM8.75 11.21a.35.35 0 0 1-.35-.35V9.106a.7.7 0 0 0-.7-.7V7.44l1.4.7v2.719a.35.35 0 0 1-.35.35M9.8 5.607a.7.7 0 0 0-.7.7v.267l-.678-.34.445-2.67.438.438a.7.7 0 0 0 .274.168l1.56.52c-.233.827-1.062.913-1.339.917" clip-rule="evenodd"/></g><defs><clipPath id="a"><path fill="#fff" d="M0 0h14v14H0z"/></clipPath></defs></svg>
